X:1
T:Title
L:1/8
M:4/4
I:linebreak $
K:D
V:1 treble nm="Voice" snm="Voice"
V:1
 F8 | G6 FG |"D" A2 AB AG F2 | E6 FG |$ A2 d2 =c4 | B2 BA FE D2 | E2 EF GF E2 |1 D4 ABAG :|2 %8
 D4 DFA=c ||$ |: | | B2 B=c dc B2 | A6 FG |$ A2 d2 c4 | B2 BA FE D2 | E2 EF GF E2 |1 D4 DFAc :|2 %18
 D4 A2 B2 |] %19
